build/img/sprite/icon-insta.svg

<svg width="28" height="28" viewBox="0 0 28 28" fill="none" xmlns="http://www.w3.org/2000/svg">
<path d="M16.6797 14C16.6797 15.48 15.48 16.6797 14 16.6797C12.52 16.6797 11.3203 15.48 11.3203 14C11.3203 12.52 12.52 11.3203 14 11.3203C15.48 11.3203 16.6797 12.52 16.6797 14Z" fill="#C6C4C2"/>
<path d="M20.2668 9.25888C20.138 8.90982 19.9325 8.59387 19.6655 8.33453C19.4062 8.0675 19.0904 7.862 18.7411 7.73318C18.4579 7.62317 18.0323 7.49222 17.2486 7.45654C16.4007 7.41788 16.1465 7.40955 14 7.40955C11.8533 7.40955 11.5991 7.41766 10.7514 7.45633C9.96765 7.49222 9.5419 7.62317 9.25885 7.73318C8.90958 7.862 8.59363 8.0675 8.3345 8.33453C8.06747 8.59387 7.86197 8.90961 7.73294 9.25888C7.62292 9.54214 7.49197 9.9679 7.4563 10.7517C7.41763 11.5993 7.4093 11.8535 7.4093 14.0002C7.4093 16.1467 7.41763 16.4009 7.4563 17.2488C7.49197 18.0326 7.62292 18.4581 7.73294 18.7414C7.86197 19.0907 8.06726 19.4064 8.33429 19.6657C8.59363 19.9328 8.90936 20.1383 9.25864 20.2671C9.5419 20.3773 9.96765 20.5083 10.7514 20.5439C11.5991 20.5826 11.8531 20.5907 13.9998 20.5907C16.1467 20.5907 16.4009 20.5826 17.2484 20.5439C18.0321 20.5083 18.4579 20.3773 18.7411 20.2671C19.4423 19.9966 19.9964 19.4425 20.2668 18.7414C20.3769 18.4581 20.5078 18.0326 20.5437 17.2488C20.5824 16.4009 20.5905 16.1467 20.5905 14.0002C20.5905 11.8535 20.5824 11.5993 20.5437 10.7517C20.508 9.9679 20.3771 9.54214 20.2668 9.25888ZM14 18.1281C11.72 18.1281 9.87173 16.28 9.87173 14C9.87173 11.72 11.72 9.87198 14 9.87198C16.2798 9.87198 18.1281 11.72 18.1281 14C18.1281 16.28 16.2798 18.1281 14 18.1281ZM18.2913 10.6735C17.7585 10.6735 17.3265 10.2415 17.3265 9.70877C17.3265 9.17599 17.7585 8.74405 18.2913 8.74405C18.824 8.74405 19.256 9.17599 19.256 9.70877C19.2558 10.2415 18.824 10.6735 18.2913 10.6735Z" fill="#C6C4C2"/>
<path d="M14 0C6.2692 0 0 6.2692 0 14C0 21.7308 6.2692 28 14 28C21.7308 28 28 21.7308 28 14C28 6.2692 21.7308 0 14 0ZM21.9906 17.3144C21.9517 18.1701 21.8156 18.7544 21.6169 19.2658C21.1993 20.3457 20.3457 21.1993 19.2658 21.6169C18.7546 21.8156 18.1701 21.9515 17.3146 21.9906C16.4573 22.0297 16.1834 22.0391 14.0002 22.0391C11.8168 22.0391 11.5431 22.0297 10.6856 21.9906C9.83008 21.9515 9.24561 21.8156 8.73441 21.6169C8.19778 21.4151 7.71201 21.0987 7.31039 20.6896C6.90152 20.2882 6.58514 19.8022 6.38327 19.2658C6.1846 18.7546 6.04852 18.1701 6.00964 17.3146C5.97012 16.4571 5.96094 16.1832 5.96094 14C5.96094 11.8168 5.97012 11.5429 6.00943 10.6856C6.04831 9.82986 6.18417 9.24561 6.38284 8.73419C6.58472 8.19778 6.90131 7.71179 7.31039 7.31039C7.71179 6.90131 8.19778 6.58493 8.73419 6.38306C9.24561 6.18439 9.82986 6.04852 10.6856 6.00943C11.5429 5.97034 11.8168 5.96094 14 5.96094C16.1832 5.96094 16.4571 5.97034 17.3144 6.00964C18.1701 6.04852 18.7544 6.18439 19.2658 6.38284C19.8022 6.58472 20.2882 6.90131 20.6898 7.31039C21.0987 7.71201 21.4153 8.19778 21.6169 8.73419C21.8158 9.24561 21.9517 9.82986 21.9908 10.6856C22.0299 11.5429 22.0391 11.8168 22.0391 14C22.0391 16.1832 22.0299 16.4571 21.9906 17.3144Z" fill="#C6C4C2"/>
</svg>

<svg fill="none" viewBox="0 0 28 28">
  <defs/>
  <path fill="#C6C4C2" d="M16.68 14a2.68 2.68 0 11-5.36 0 2.68 2.68 0 015.36 0z"/>
  <path fill="#C6C4C2" d="M20.27 9.26a2.5 2.5 0 00-.6-.93 2.49 2.49 0 00-.93-.6c-.28-.1-.7-.24-1.5-.27-.84-.04-1.1-.05-3.24-.05-2.15 0-2.4 0-3.25.05-.78.03-1.2.16-1.5.27-.34.13-.66.34-.92.6a2.5 2.5 0 00-.6.93c-.1.28-.24.7-.27 1.5-.04.84-.05 1.1-.05 3.24 0 2.15 0 2.4.05 3.25.03.78.16 1.2.27 1.5.13.34.34.66.6.92.26.26.58.47.93.6.28.1.7.24 1.5.27.84.04 1.1.05 3.24.05 2.15 0 2.4 0 3.25-.05.78-.03 1.2-.16 1.5-.27.7-.27 1.25-.83 1.52-1.53.1-.28.24-.7.27-1.5.04-.84.05-1.1.05-3.24 0-2.15 0-2.4-.05-3.25a4.44 4.44 0 00-.27-1.5zM14 18.13a4.13 4.13 0 110-8.26 4.13 4.13 0 010 8.26zm4.3-7.46a.96.96 0 110-1.93.96.96 0 010 1.93z"/>
  <path fill="#C6C4C2" d="M14 0a14 14 0 100 28 14 14 0 000-28zm8 17.31a5.9 5.9 0 01-.38 1.96 4.11 4.11 0 01-2.35 2.35c-.52.2-1.1.33-1.96.37a57 57 0 01-3.31.05 57 57 0 01-3.31-.05 5.9 5.9 0 01-1.96-.37 3.94 3.94 0 01-1.42-.93c-.4-.4-.72-.89-.93-1.42a5.9 5.9 0 01-.37-1.96c-.04-.85-.05-1.13-.05-3.31s.01-2.46.05-3.31a5.9 5.9 0 01.37-1.96c.2-.53.52-1.02.93-1.42.4-.4.89-.73 1.42-.93a5.9 5.9 0 011.96-.37c.85-.04 1.13-.05 3.31-.05s2.46.01 3.31.05a5.9 5.9 0 011.96.37c.53.2 1.02.52 1.42.93.4.4.73.89.93 1.42.2.52.33 1.1.37 1.96.04.85.05 1.13.05 3.31s-.01 2.46-.05 3.31z"/>
</svg>
